Obsidian-SemiLight/actions/16s/edit-table-insert-column-left.svg

<svg viewBox="0 0 16 16" xmlns="http://www.w3.org/2000/svg"><path d="m7 2v1h2v3h-2v1h2v2h-2v1h2v3h-2v1h7v-12h-1zm3 1h3v3h-3zm0 4h3v2h-3zm-4 3-4 2 4 2zm4 0h3v3h-3z" fill="#4d4d4d"/><path d="m7 2h-1v1.281l-1.281-1.281h-1.438l2.719 2.719v2.563l-3-3v-2.281h-1v7h1.719l-.719-.719v-2.563l3 3v.281h1v-6z" fill="#3daee9"/></svg>

<svg xmlns="http://www.w3.org/2000/svg" viewBox="0 0 16 16">
  <defs id="defs3051">
    <style type="text/css" id="current-color-scheme">
      .ColorScheme-Text {
        color:#4d4d4d;
      }
      .ColorScheme-Highlight {
        color:#3daee9;
      }
      </style>
  </defs>
  <path 
        style="fill:currentColor;fill-opacity:1;stroke:none"
        d="M 7 2 L 7 3 L 9 3 L 9 6 L 7 6 L 7 7 L 9 7 L 9 9 L 7 9 L 7 10 L 9 10 L 9 13 L 7 13 L 7 14 L 14 14 L 14 2 L 13 2 L 7 2 z M 10 3 L 13 3 L 13 6 L 10 6 L 10 3 z M 10 7 L 13 7 L 13 9 L 10 9 L 10 7 z M 6 10 L 2 12 L 6 14 L 6 10 z M 10 10 L 13 10 L 13 13 L 10 13 L 10 10 z "
        class="ColorScheme-Text"
        />
  <path 
        style="fill:currentColor;fill-opacity:1;stroke:none"
        d="M 7,2 6,2 6,3.281 4.719,2 3.281,2 6,4.719 l 0,2.563 -3,-3 0,-2.281 -1,0 0,7 1.719,0 L 3,8.282 3,5.719 6,8.719 6,9 7,9 7,3 Z"
        class="ColorScheme-Highlight"
        />
</svg>
